!!!OTL: WER REIT'T SO SPAET DURCH NACHT UND WIND
!!!ARE: Europa, Mitteleuropa, Deutschland
!!!SCT: B0113
!!!YEM: Copyright 1995, estate of Helmut Schaffrath.
**kern
*ICvox
*Ivox
*M6/8
*k[f#c#g#]
*A:
{8c#
=1
4e
8c#
4e
8c#
=2
16b
8a
16g#
8a
8b
8r}
{8a
=3
4g#
8g#
8.g#
16a
8b
=4
4cc#
8a
8a
8r}
{8e
=5
16g#
8f#
16e
8f#
16a
8g#
16f#
8g#
=6
8.a
16g#
8a
8b
8r}
{8e
=7
8.e
16f#
8e
8.f#
16f#
8e
=8
8.f#
16b
8g#
8a
8r}
==
!!!AGN: Ballade, Romanze
!!!ONB: ESAC (Essen Associative Code) Database: BOEHME
!!!AMT: compound duple
!!!AIN: vox
!!!EED: Helmut Schaffrath
!!!EEV: 1.0
*-
